!!! OTL: Berkowitz300
!!! Chapter: 1
!!! Section: III
!!! Page: 72
!!! Mode: 
!!! Encoder: DJB
**kern
*staff1
*I"Piano
=1-
*clefC4
*k[b-]
*F:
*M3/4
4r
4r
4C/
=2
4C/
4B-\
12G\L
12A\
12B-\J
=3
4A\
4F/
4F/
=4
4C/
4B-\
12G\L
12A\
12B-\J
=5
2c\
4c\
=6
4d\
4E/
12B-\L
12c\
12d\J
=7
4c\
4D/
4B-\
=8
4A\
4F/
12C/L
12D/
12E/J
=9
2F/
4r
==
*-
